common/src/main/resources/icons/plugins/clion/OcdRunConfiguration.svg

<svg xmlns="http://www.w3.org/2000/svg" width="16" height="16" data-big="true" viewBox="0 0 24 24"><path fill="#4DB6AC" d="M17 17H7V7h10m4 4V9h-2V7a2 2 0 0 0-2-2h-2V3h-2v2h-2V3H9v2H7c-1.11 0-2 .89-2 2v2H3v2h2v2H3v2h2v2a2 2 0 0 0 2 2h2v2h2v-2h2v2h2v-2h2a2 2 0 0 0 2-2v-2h2v-2h-2v-2m-6 2h-2v-2h2m2-2H9v6h6z"/></svg>

<!--
  - The MIT License (MIT)
  -
  - Copyright (c) 2015-2024 Elior "Mallowigi" Boukhobza
  -
  - Permission is hereby granted, free of charge, to any person obtaining a copy
  - of this software and associated documentation files (the "Software"), to deal
  - in the Software without restriction, including without limitation the rights
  - to use, copy, modify, merge, publish, distribute, sublicense, and/or sell
  - copies of the Software, and to permit persons to whom the Software is
  - furnished to do so, subject to the following conditions:
  -
  - The above copyright notice and this permission notice shall be included in all
  - copies or substantial portions of the Software.
  -
  - THE SOFTWARE IS PROVIDED "AS IS", WITHOUT WARRANTY OF ANY KIND, EXPRESS OR
  - IMPLIED, INCLUDING BUT NOT LIMITED TO THE WARRANTIES OF MERCHANTABILITY,
  - FITNESS FOR A PARTICULAR PURPOSE AND NONINFRINGEMENT. IN NO EVENT SHALL THE
  - AUTHORS OR COPYRIGHT HOLDERS BE LIABLE FOR ANY CLAIM, DAMAGES OR OTHER
  - LIABILITY, WHETHER IN AN ACTION OF CONTRACT, TORT OR OTHERWISE, ARISING FROM,
  - OUT OF OR IN CONNECTION WITH THE SOFTWARE OR THE USE OR OTHER DEALINGS IN THE
  - SOFTWARE.
  -->


<svg data-big="true" xmlns="http://www.w3.org/2000/svg" version="1.1" width="16px" height="16px" viewBox="0 0 24 24">
  <path fill="#4DB6AC"
        d="M17,17H7V7H17M21,11V9H19V7C19,5.89 18.1,5 17,5H15V3H13V5H11V3H9V5H7C5.89,5 5,5.89 5,7V9H3V11H5V13H3V15H5V17A2,2 0 0,0 7,19H9V21H11V19H13V21H15V19H17A2,2 0 0,0 19,17V15H21V13H19V11M13,13H11V11H13M15,9H9V15H15V9Z"/>
</svg>
